images/faq-delivery.svg

<svg width="66" height="39" viewBox="0 0 66 39" fill="none" xmlns="http://www.w3.org/2000/svg">
<path fill-rule="evenodd" clip-rule="evenodd" d="M60.6631 16.3065L59.136 10.2505C59.5535 10.1626 59.8668 9.79538 59.8668 9.35542V8.379C59.8668 6.259 58.127 4.53431 55.9888 4.53431H49.0329V2.52027C49.0329 1.47706 48.1769 0.628418 47.1247 0.628418H11.6682C10.616 0.628418 9.75996 1.47706 9.75996 2.52027V19.1197C9.75996 19.6252 10.1733 20.0351 10.6833 20.0351C11.1932 20.0351 11.6067 19.6253 11.6067 19.1197V2.52027C11.6067 2.48659 11.6342 2.4593 11.6682 2.4593H47.1246C47.1586 2.4593 47.1861 2.48659 47.1861 2.52027V19.1199C47.1861 19.6254 47.5994 20.0354 48.1095 20.0354C48.6193 20.0354 49.0328 19.6255 49.0328 19.1199V18.0822H59.9251L59.9275 18.0824L59.93 18.0823C61.2703 18.0832 62.4084 18.9554 62.7993 20.1572H59.9282C59.4183 20.1572 59.0048 20.567 59.0048 21.0726V23.0255C59.0048 24.6071 60.3026 25.8938 61.8979 25.8938H62.9444V29.9215H60.5301C59.737 27.6511 57.56 26.0157 55.0036 26.0157C52.4473 26.0157 50.2702 27.6511 49.4772 29.9215H49.0326V23.0254C49.0326 22.5199 48.6192 22.1099 48.1092 22.1099C47.5993 22.1099 47.1858 22.5197 47.1858 23.0254V29.9213H28.0286C27.2355 27.6509 25.0585 26.0155 22.5022 26.0155C19.9458 26.0155 17.7687 27.6509 16.9757 29.9213H11.6682C11.6342 29.9213 11.6067 29.894 11.6067 29.8603V27.8464H15.6079C16.1178 27.8464 16.5312 27.4365 16.5312 26.9309C16.5312 26.4253 16.1179 26.0155 15.6079 26.0155H6.7438C6.23391 26.0155 5.82043 26.4253 5.82043 26.9309C5.82043 27.4365 6.2338 27.8464 6.7438 27.8464H9.76007V29.8603C9.76007 30.9035 10.6161 31.7521 11.6683 31.7521H16.656C16.6559 31.7614 16.6555 31.7706 16.6552 31.7798C16.6548 31.7908 16.6544 31.802 16.6544 31.8131C16.6544 35.0099 19.2778 37.6106 22.5022 37.6106C25.7266 37.6106 28.35 35.0099 28.35 31.8131C28.35 31.8058 28.3498 31.7986 28.3495 31.7914L28.3491 31.7797C28.3488 31.7705 28.3484 31.7613 28.3483 31.7521H49.1575C49.1574 31.7613 49.157 31.7705 49.1567 31.7797C49.1562 31.7908 49.1558 31.802 49.1558 31.8131C49.1558 35.0099 51.7792 37.6106 55.0036 37.6106C58.228 37.6106 60.8514 35.0099 60.8514 31.8131C60.8514 31.8019 60.851 31.7909 60.8506 31.7799C60.8503 31.7706 60.8499 31.7614 60.8498 31.7521H63.8678C64.3777 31.7521 64.7912 31.3423 64.7912 30.8367V21.0724C64.7913 18.6617 62.9972 16.6587 60.6631 16.3065ZM49.0329 6.36508H55.9888C57.1089 6.36508 58.0201 7.26853 58.0201 8.379V8.43998H49.0329V6.36508ZM49.0329 16.2514V10.2707H57.2376L58.7458 16.2514H49.0329ZM22.5022 35.7801C20.2959 35.7801 18.501 34.0007 18.501 31.8133C18.501 29.626 20.2959 27.8466 22.5022 27.8466C24.7084 27.8466 26.5033 29.626 26.5033 31.8133C26.5033 34.0007 24.7084 35.7801 22.5022 35.7801ZM55.0039 35.7801C52.7976 35.7801 51.0027 34.0007 51.0027 31.8133C51.0027 29.626 52.7976 27.8466 55.0039 27.8466C57.2101 27.8466 59.005 29.626 59.005 31.8133C59.005 34.0007 57.2101 35.7801 55.0039 35.7801ZM62.9445 24.0629H61.8982C61.3211 24.0629 60.8517 23.5974 60.8517 23.0254V21.9879H62.9445V24.0629ZM22.5021 29.9216C21.4498 29.9216 20.5938 30.7702 20.5938 31.8134C20.5938 32.8567 21.4498 33.7053 22.5021 33.7053C23.5544 33.7053 24.4104 32.8567 24.4104 31.8134C24.4104 30.7702 23.5544 29.9216 22.5021 29.9216ZM53.0956 31.8134C53.0956 30.7702 53.9516 29.9216 55.0039 29.9216C56.0561 29.9216 56.9121 30.7702 56.9121 31.8134C56.9121 32.8567 56.0561 33.7053 55.0039 33.7053C53.9516 33.7053 53.0956 32.8567 53.0956 31.8134ZM1.85111 22.11H13.6699C14.1798 22.11 14.5933 22.5198 14.5933 23.0254C14.5933 23.5311 14.1798 23.9409 13.6699 23.9409H1.85111C1.34111 23.9409 0.927734 23.5311 0.927734 23.0254C0.927734 22.5198 1.34122 22.11 1.85111 22.11Z" fill="#36A6F2"/>
<path d="M59.9358 18.4103L59.9178 18.4111L59.9078 18.4102H49.364V19.1181C49.364 19.8059 48.8015 20.3633 48.108 20.3633C47.4142 20.3633 46.852 19.8057 46.852 19.1181V2.78728H11.9379V19.1179C11.9379 19.8057 11.3754 20.3631 10.6819 20.3631C9.98812 20.3631 9.42586 19.8055 9.42586 19.1179V2.51849C9.42586 1.29316 10.4308 0.296875 11.6667 0.296875H47.1232C48.3592 0.296875 49.3641 1.29316 49.3641 2.51849V4.20277H55.9873C58.3092 4.20277 60.1979 6.07509 60.1979 8.37722V9.35364C60.1979 9.83127 59.9268 10.2453 59.5291 10.4541L60.9319 16.0168C63.3175 16.4823 65.1225 18.5706 65.1223 21.0706V30.8349C65.1223 31.5227 64.5599 32.0801 63.8663 32.0801H61.1767C61.0343 35.3348 58.3194 37.9386 55.0022 37.9386C51.6849 37.9386 48.97 35.3348 48.8276 32.0801H28.6752C28.5329 35.3348 25.8179 37.9386 22.5007 37.9386C19.1834 37.9386 16.4685 35.3348 16.3261 32.0801H11.6669C10.4309 32.0801 9.42597 31.0838 9.42597 29.8585V28.1743H6.74233C6.04862 28.1743 5.48633 27.6169 5.48633 26.9291C5.48633 26.2414 6.04876 25.6839 6.74233 25.6839H15.6064C16.3001 25.6839 16.8624 26.2414 16.8624 26.9291C16.8624 27.6169 16.3 28.1743 15.6064 28.1743H11.9379V29.5897H16.7423C17.6412 27.3071 19.8818 25.6839 22.5007 25.6839C25.1196 25.6839 27.3601 27.3071 28.259 29.5897H46.8517V23.0236C46.8517 22.3358 47.4142 21.7784 48.1077 21.7784C48.8015 21.7784 49.3638 22.336 49.3638 23.0236V29.3066C50.331 27.1742 52.493 25.6842 55.0022 25.6842C57.621 25.6842 59.8616 27.3073 60.7605 29.5899H62.6103V26.2217H61.8965C60.1174 26.2217 58.6707 24.7874 58.6707 23.0237V21.0709C58.6707 20.3831 59.2331 19.8257 59.9267 19.8257H62.2972C61.8469 18.9866 60.9572 18.4138 59.9358 18.4103Z" stroke="#36A6F2" stroke-width="0.5"/>
</svg>

<svg width="66" height="39" fill="none" xmlns="http://www.w3.org/2000/svg"><path fill-rule="evenodd" clip-rule="evenodd" d="M60.663 16.306l-1.527-6.056a.917.917 0 00.73-.895V8.38c0-2.12-1.739-3.845-3.877-3.845h-6.956V2.52A1.902 1.902 0 0047.125.628H11.668A1.902 1.902 0 009.76 2.52v16.6a.92.92 0 00.923.915.92.92 0 00.924-.915V2.52c0-.033.027-.06.061-.06h35.457c.034 0 .061.027.061.06v16.6a.92.92 0 00.923.915.92.92 0 00.924-.915v-1.038H59.93c1.34.001 2.478.873 2.87 2.075h-2.872a.92.92 0 00-.923.916v1.953c0 1.581 1.298 2.868 2.893 2.868h1.046v4.028H60.53a5.853 5.853 0 00-5.526-3.906 5.853 5.853 0 00-5.527 3.906h-.444v-6.897a.92.92 0 00-.924-.915.92.92 0 00-.923.915v6.896H28.029a5.853 5.853 0 00-5.527-3.905 5.853 5.853 0 00-5.526 3.905h-5.308a.061.061 0 01-.061-.06v-2.015h4a.92.92 0 00.924-.915.92.92 0 00-.923-.916H6.744a.92.92 0 00-.924.916.92.92 0 00.924.915H9.76v2.014c0 1.044.856 1.892 1.908 1.892h4.988v.028a.92.92 0 00-.002.033c0 3.197 2.624 5.798 5.848 5.798 3.225 0 5.848-2.601 5.848-5.798a.52.52 0 000-.022v-.011l-.002-.028h20.81l-.001.028-.001.033c0 3.197 2.623 5.798 5.848 5.798 3.224 0 5.847-2.601 5.847-5.798v-.033l-.001-.028h3.018a.92.92 0 00.923-.915v-9.765c0-2.41-1.794-4.413-4.128-4.765zm-11.63-9.94h6.956c1.12 0 2.031.903 2.031 2.013v.061h-8.987V6.365zm0 9.885v-5.98h8.205l1.508 5.98h-9.713zm-26.53 19.53c-2.207 0-4.002-1.78-4.002-3.968 0-2.187 1.795-3.966 4.001-3.966 2.206 0 4.001 1.779 4.001 3.966 0 2.188-1.795 3.967-4 3.967zm32.5 0c-2.205 0-4-1.78-4-3.968 0-2.187 1.795-3.966 4-3.966 2.207 0 4.002 1.779 4.002 3.966 0 2.188-1.795 3.967-4.001 3.967zm7.941-11.718h-1.046a1.043 1.043 0 01-1.046-1.038v-1.037h2.093v2.075zm-40.442 5.859a1.902 1.902 0 00-1.908 1.891c0 1.044.856 1.892 1.908 1.892a1.902 1.902 0 001.908-1.892 1.902 1.902 0 00-1.908-1.891zm30.594 1.891c0-1.043.856-1.891 1.908-1.891s1.908.848 1.908 1.891a1.902 1.902 0 01-1.908 1.892 1.902 1.902 0 01-1.908-1.892zM1.85 22.11H13.67c.51 0 .923.41.923.915a.92.92 0 01-.923.916H1.85a.92.92 0 01-.923-.916.92.92 0 01.923-.915z" fill="#36A6F2"/><path d="M59.936 18.41l-.018.001H49.364v.707a1.25 1.25 0 01-1.256 1.245 1.25 1.25 0 01-1.256-1.245V2.788H11.938v16.33a1.25 1.25 0 01-1.256 1.245 1.25 1.25 0 01-1.256-1.245v-16.6a2.233 2.233 0 012.24-2.221h35.457c1.236 0 2.241.996 2.241 2.221v1.685h6.623c2.322 0 4.21 1.872 4.21 4.174v.977c0 .477-.27.891-.668 1.1l1.403 5.563c2.386.465 4.19 2.554 4.19 5.054v9.764a1.25 1.25 0 01-1.256 1.245h-2.69c-.142 3.255-2.857 5.859-6.174 5.859s-6.032-2.604-6.174-5.859H28.675c-.142 3.255-2.857 5.859-6.174 5.859-3.318 0-6.033-2.604-6.175-5.859h-4.66a2.233 2.233 0 01-2.24-2.221v-1.685H6.742a1.25 1.25 0 01-1.256-1.245 1.25 1.25 0 011.256-1.245h8.864a1.25 1.25 0 011.256 1.245 1.25 1.25 0 01-1.256 1.245h-3.668v1.416h4.804a6.188 6.188 0 015.759-3.906 6.187 6.187 0 015.758 3.906h18.593v-6.566a1.25 1.25 0 011.256-1.246 1.25 1.25 0 011.256 1.246v6.283a6.19 6.19 0 015.638-3.623 6.187 6.187 0 015.758 3.906h1.85v-3.368h-.713c-1.78 0-3.226-1.435-3.226-3.198V21.07a1.25 1.25 0 011.256-1.245h2.37a2.69 2.69 0 00-2.361-1.416z" stroke="#36A6F2" stroke-width=".5"/></svg>
